X: 325
T:Jig from the Water Music
% Nottingham Music Database
P:AABBCCDD
S:G F Handel, via EF
M:6/8
K:G
P:A
|:D|"G"G2B "D7"A2c|"G"Bcd "D7"G2A|"G"Bcd "C"cde|"D"d3 d2d|
"C"e2A "D7"ABc|"G"d2G GAB|"C"cdc "G"BAB|"D"A3 A2:|
P:B
|:A|"Am"A2A A2B|"Am"cde A2c|"Am"e2e "D7"e2f|"G"g2G "D7"G2A|
"G"BAG "C"c3-|"Am"cBA "D7"d2c|"G"BcB "D7"AGA|"G"G3 G2:|
K:Bb
P:C
|:d|"Gm"g2G g2G|"Gm"gab g2f|"Cm"edc "D7"BcA|"Gm"Bcd GAB|
"Cm"cde "F"ABc|"Bb"F2b "Eb"a2g|"Cm"fed "F7"cBc|"Bb"B3 B2:|
P:D
|:f|"Bb"b2B b2B|"F"ABc F2d|"Gm"g2G g2G|"D7"^FGA D2d|
"Cm"edc "Gm"BAG|"D"^f=ef "Cm"g=f_e|"D7"dcB AGA|"Gm"G3 G2:|<end>
<start>
